!!!COM: Scriabin, Alexander
!!!OTL@@FR: Poème-nocturne
!!!OTL@@EN: Poem-Nocturne
!!!OPS: 61
!!!ODT: 1911–1912
!!!AGN: Poem
**kern	**kern	**dynam
*staff2	*staff1	*staff1/2
*Ipiano	*Ipiano	*
*clefF4	*clefG2	*
*k[]	*k[]	*
*X:	*X:	*
*M9/8	*M9/8	*
4r	4g/	.
4r	4a-X/	.
8r	8b\	.
=1	=1	=1
16r	[4.b-X\	.
16f\LL	.	.
16c-X	.	.
16D-XJ	.	.
[8GJ	.	.
2.G]	8b-\L]	.
.	8cc-X	.
.	8ffJ	.
.	[4.e--/	.
=2	=2	=2
4r	4.e--/_	.
8r	.	.
16f\LL	8.e--/L]	.
16c-X	.	.
16D-XJJ	.	.
16r	16e-XL	.
8r	16b-X	.
.	16cc-XJJ	.
16c-\LL	4ff\	.
16F	.	.
16GGJJ	.	.
16r	.	.
8r	[8e--/	.
=3	=3	=3
16f\LL	8.e--/L]	.
16c-X	.	.
16D-XJJ	.	.
16r	16e-XL	.
8r	16b-X	.
.	16cc-XJJ	.
16c-\LL	4ff\	.
16F	.	.
16GGJJ	.	.
16r	.	.
8r	[8e--/	.
16F/LL	8e--/L]	.
16GG	.	.
16DD-XJJ	8cc-	.
16r	.	.
8r	8b-J	.
=4	=4	=4
[8qAAA [8qDD#X/	.	.
*	*^	*
4.AAA] 4.DD#] 4.BB-X 4.En/	4rc	4.B-X 4.f#X 4.b-X [4.cc#X/	.
.	8rc	.	.
2.c#X\	8B-\L	8cc#/]	.
.	8a	4a/	.
.	8f#J	.	.
.	8b-\L	4b-/	.
.	8f#	.	.
.	8cc#J	8cc#/	.
*	*v	*v	*
=5	=5	=5
16r	[4.ccn\	.
16g\LL	.	.
16d-X	.	.
16E-XJ	.	.
[8AJ	.	.
2.A\]	8cc\L]	.
.	8dd-X	.
.	8ggJ	.
.	[4.f-X/	.
=6	=6	=6
4r	4.f-/_	.
8r	.	.
16g\LL	8.f-/L]	.
16d-X	.	.
16E-XJJ	.	.
16r	16fnL	.
8r	16cc	.
.	16dd-XJJ	.
16d-\LL	4gg\	.
16G	.	.
16AAJJ	.	.
16r	.	.
8r	[8f-X/	.
=7	=7	=7
16g\LL	8.f-/L]	.
16d-X	.	.
16E-XJJ	.	.
16r	16fnL	.
8r	16cc	.
.	16dd-XJJ	.
16d-\LL	4gg\	.
16G	.	.
16AAJJ	.	.
16r	.	.
8r	[8f-X/	.
16G/LL	8f-/L]	.
16AA	.	.
16EE-XJJ	8dd-	.
16r	.	.
8r	8ccJ	.
=8	=8	=8
[8qBBB [8qEE#X/	.	.
4BBB] 4EE#] 4C 4F#X/	8.cL 8.g#X 8.cc 8.dd#X/	.
.	16gnL	.
8r	16ddn	.
.	16ee-XJJ	.
16e-X\LL	4aa\	.
16A	.	.
16BBJJ	.	.
16r	.	.
8r	[8g-X/	.
16A/LL	8g-\L]	.
16BB	.	.
16FFnJJ	8ee-	.
16r	.	.
8r	8ddJ	.
=9	=9	=9
*M3/4	*M3/4	*
[8qBBB [8qEE#X/	.	.
*	*^	*
4BBB] 4EE#] 4C 4F#X/	4rc	4c 4g#X 4cc 4dd#X/	.
2D#X 2d#X\	12c\L	12raa	.
.	12b	6b/	.
.	12g#J	.	.
.	12cc\L	6cc/	.
.	12g#	.	.
.	12ddJ	12ddn/	.
=10	=10	=10	=10
[8qBBB [8qEE#X/	.	.	.
4BBB] 4EE#] 4C 4F#X/	4rc	4c 4g#X 4cc 4dd#X/	.
2D#X 2d#X\	12c\L	12raa	.
.	12b	6b/	.
.	12g#J	.	.
.	12cc\L	6cc/	.
.	12g#	.	.
.	12eeJ	12ee/	.
=11	=11	=11	=11
[8qAAA-X [8qDDn/	.	.	.
4AAA-] 4DD] 4BB-- 4E-X/	4rc	4f 4b-- 4cc 4ff\	.
2C 2c\	12f\L	12raa	.
.	12cc-	6cc-X/	.
.	12a-XJ	.	.
.	12cc\L	6ccn/	.
.	12b--	.	.
.	12eeJ	12een/	.
=12	=12	=12	=12
[8qAAA-X [8qDD/	.	.	.
4AAA-] 4DD] 4BB-- 4E-X/	4rc	4f 4b-- 4cc 4ff\	.
2C 2c\	12f\L	12raa	.
.	12cc-	6cc-X/	.
.	12a-XJ	.	.
.	12cc\L	6ccn/	.
.	12b--	.	.
.	12eeJ	12een/	.
*	*v	*v	*
=13	=13	=13
[8qGGG [8qCC#X/	.	.
4GGG] 4CC#] 4AA-X 4D/	4a-X 4bn 4ee 4aa-X\	.
[2BBn [2Bn\	12A-X/L	.
.	12g	.
.	12eJ	.
.	12a-/L	.
.	12e	.
.	12a-J	.
=14	=14	=14
2BB] 2B\]	12g\L	.
.	12ee	.
.	12gJ	.
.	12ee\L	.
.	12a-X	.
.	12ggJ	.
4r	12a-\L	.
.	12gg	.
.	12eeJ	.
=15	=15	=15
[8qGGG [8qDD-X [8qGG/	.	.
4GGG] 4DD-] 4GG] 4E-- 4A-X/	4a-X 4b-X 4ee-- 4ff 4aa-X\	.
[2F\	12E--/L	.
.	12d-X	.
.	12B-XJ	.
.	12e--/L	.
.	12B-	.
.	12e--J	.
=16	=16	=16
2F\]	12d-X/L	.
.	12b-X	.
.	12d-J	.
.	12b-/L	.
.	12e--	.
.	12dd-XJ	.
4GG 4F 4c-X\	12e-X/L	.
.	12dd-	.
.	12b-J	.
=17	=17	=17
24r	[4b-X\	.
24f\LL	.	.
24c-X	.	.
24D-XJ	.	.
[12GJ	.	.
2G\]	12b-\L]	.
.	12cc-X	.
.	12ffJ	.
.	[4e--/	.
*clefG2	*	*
=18	=18	=18
72e-/LLL	8e--/L]	.
72f	.	.
72g	.	.
72b-	.	.
72cc-	.	.
72ee-	.	.
72ff	.	.
72gg	.	.
72bb-JJJ	.	.
8r	8ccc-J	.
2r	[2e--/	.
*clefF4	*	*
=19	=19	=19
4r	8e--/]	.
.	8r	.
8EEn/L	12F/L	.
.	12en	.
8AA#X	.	.
.	12c#XJ	.
8G#X	12f/L	.
.	12c#	.
8AA#J	.	.
.	12fJ	.
=20	=20	=20
8G#X\L	12e/L	.
.	12cc#X	.
8c#X	.	.
.	12eJ	.
8G#	12cc#\L	.
.	12f	.
8c#J	.	.
.	12eeJ	.
8g#X\	12f\L	.
.	12ee	.
8r	.	.
.	12cc#J	.
=21	=21	=21
24r	[4cc#X\	.
24g#X\LL	.	.
24d	.	.
24EJ	.	.
[12A#XJ	.	.
2A#\]	12cc#\L]	.
.	12dd	.
.	12gg#XJ	.
.	[4f/	.
*clefG2	*	*
=22	=22	=22
72f#/LLL	8f/L]	.
72g#	.	.
72a#	.	.
72cc#	.	.
72dd	.	.
72ff#	.	.
72gg#	.	.
72aa#	.	.
72ccc#JJJ	.	.
8r	8dddJ	.
4.r	4.fn/	.
32qqqan/LLL	.	.
32qqqb	.	.
32qqqcc#	.	.
32qqqee	.	.
32qqqffn	.	.
32qqqaan	.	.
32qqqbb	.	.
32qqqccc#	.	.
32qqqeeeJJJ	.	.
8r	8fff\	.
*clefF4	*	*
=23	=23	=23
2.GG 2.C#X/	2.A-X 2.B 2.e 2.a-X/	.
=24	=24	=24
8GG 8F/	12An 12B 12f 12an/	.
.	24a\LL	.
8r	24b	.
.	24cc#X	.
.	24eeJJ	.
4r	12ff\L	.
.	12aa	.
.	12bbJ	.
4r	12ccc#X\L	.
.	12eee	.
.	24qqaa/LL	.
.	24qqbb	.
.	24qqccc#	.
.	24qqeeeJJ	.
.	12fffJ	.
=25	=25	=25
*^	*	*
2.GG\	2D/	2.A-X 2.B 2.e 2.a-X/	.
.	4C#X/	.	.
=26	=26	=26	=26
2.GG\	2D/	2.A-X 2.B 2.e 2.a-X/	.
.	4C#X/	.	.
*v	*v	*	*
=27	=27	=27
8GG\L	12A-X/L	.
.	12g	.
8C#X	.	.
.	12eJ	.
8B	12a-X/L	.
.	12e	.
8C#	.	.
.	12a-J	.
8B	12g\L	.
.	12ee	.
8eJ	.	.
.	12gJ	.
=28	=28	=28
8B\L	12ee\L	.
.	12a-X	.
8eJ	.	.
.	12ggJ	.
4r	12a-\L	.
.	12gg	.
.	12eeJ	.
4r	16aa-X\LL	.
.	16gg	.
.	16ee	.
.	16a-JJ	.
=29	=29	=29
4GG 4F/	4B 4f 4an/	.
8r	8r	.
16qqGG/LL	.	.
16qqF	.	.
16qqBJJ	.	.
24a\LL	8bb\	.
24f	.	.
24BJJ	.	.
16F/LL	8ff\L	.
16GGJJ	.	.
8r	8eeJ	.
=30	=30	=30
4r	2a/	.
8r	.	.
24f\LL	.	.
24B	.	.
24FJJ	.	.
16GGn/LL	4g#X/	.
16GGGJJ	.	.
8r	.	.
=31	=31	=31
8r	4r	.
24CC#X/LL	.	.
24GG	.	.
24FJJ	.	.
4.A\	[2B [2f [2b/	.
8G#X\	.	.
=32	=32	=32
8r	2B] 2f] 2b/]	.
24CC#X/LL	.	.
24GGn	.	.
24FJJ	.	.
4.A\	.	.
.	4r	.
8G#X\	.	.
=33	=33	=33
*	*^	*
4r	4rc	4raa	.
4r	4rc	4raa	.
20F\LL	20rc	10raa	.
20BJJ	20e\LL	.	.
10r	20a-	10.a-X/	.
.	20f	.	.
20r	20BJJ	.	.
=34	=34	=34	=34
20B\LL	20rc	10raa	.
20F	20e\LL	.	.
20GGJJ	20a	10.an/	.
10r	20f	.	.
.	20BJJ	.	.
4r	4rc	10raa	.
.	.	10qf/	.
.	.	10.b/	.
20F\LL	20rc	10raa	.
20B	20e\LL	.	.
20aJJ	20cc#	10.cc#X/	.
10r	20f	.	.
.	20BJJ	.	.
=35	=35	=35	=35
20d-X\LL	20rc	10raa	.
20A-X	20e\LL	.	.
20BB-XJJ	20ee	10.ee/	.
10r	20f	.	.
.	20d-XJJ	.	.
24A-\LL	4rc	4raa	.
24d-	.	.	.
24a-XJJ	.	.	.
8r	.	.	.
4r	4rc	4e/	.
*	*v	*v	*
=36	=36	=36
20d-X\LL	4f/	.
20A-X	.	.
20BB-XJJ	.	.
10r	.	.
4r	4g/	.
16qqEE/LL	.	.
16qqDnJJ	.	.
4F#X\	4G#X 4dn 4g#X/	.
=37	=37	=37
16Fn/LL	4A 4B 4f 4a/	.
16GGnJJ	.	.
8r	.	.
8r	8r	.
16qqGG/LL	.	.
16qqF	.	.
16qqBJJ	.	.
24a\LL	8bb\	.
24f	.	.
24BJJ	.	.
16F/LL	8ffL\	.
16GGJJ	.	.
8r	8eeJ	.
=38	=38	=38
4r	2a/	.
8r	.	.
24f\LL	.	.
24B	.	.
24FJJ	.	.
16GGn/LL	4g#X/	.
16GGGJJ	.	.
8r	.	.
=39	=39	=39
*	*^	*
8r	4rc	4raa	.
24CC#X/LL	.	.	.
24GG	.	.	.
24FJJ	.	.	.
4.A\	[2B [2f\	[2b/	.
8G#X\	.	.	.
=40	=40	=40	=40
8r	2.B] 2.f\]	2b/]	.
24CC#X/LL	.	.	.
24GGn	.	.	.
24FJJ	.	.	.
4A\	.	.	.
4B-X\	.	4b-X/	.
=41	=41	=41	=41
8r	4rc	4raa	.
24DD-X/LL	.	.	.
24GG	.	.	.
24FJJ	.	.	.
4.B-X\	[2c-X [2f\	[2dd-X/	.
8A\	.	.	.
=42	=42	=42	=42
8r	2.c-] 2.f\]	2dd-/]	.
24DD-X/LL	.	.	.
24GG	.	.	.
24FJJ	.	.	.
4B-X\	.	.	.
4c-X\	.	4ccn/	.
=43	=43	=43	=43
12r	4rc	4raa	.
12GG/L	.	.	.
12D-XJ	.	.	.
4.c-X\	[2f [2cc-X\	[2ee-X/	.
8B-X\	.	.	.
=44	=44	=44	=44
12r	2.f] 2.cc-\]	2ee-/]	.
12GG/L	.	.	.
12D-XJ	.	.	.
4c-X\	.	.	.
4dn\	.	4dd/	.
=45	=45	=45	=45
16r	12rc	[2ff/	.
16GG\LL	.	.	.
.	12cc-X\L	.	.
16D-X	.	.	.
.	12fJ	.	.
16c-XJJ	.	.	.
4.e-X\	4cc-\	.	.
.	12f\L	6ff/]	.
.	12cc-J	.	.
8f-X\	.	.	.
.	12rc	12ff-X/	.
=46	=46	=46	=46
20r	12rc	[2aa-X/	.
20CC#X/LL	.	.	.
.	12b\L	.	.
20GG	.	.	.
20Fn	.	.	.
.	12fnJ	.	.
20BJJ	.	.	.
4en\	4b\	.	.
4e-X\	12f\L	12aa-/L]	.
.	12bJ	12gg	.
.	12rc	12ff#XJ	.
=47	=47	=47	=47
16r	12rc	[2ffn/	.
16GG\LL	.	.	.
.	12cc-X\L	.	.
16D-X	.	.	.
.	12fJ	.	.
16c-XJJ	.	.	.
4.e-X\	4cc-\	.	.
.	12f\L	6ff/]	.
.	12cc-J	.	.
8f-X\	.	.	.
.	12rc	12ff-X/	.
=48	=48	=48	=48
20rD	12rc	[2aa-X/	.
20CC#X/LL	.	.	.
.	12b\L	.	.
20GG	.	.	.
20F	.	.	.
.	12fJ	.	.
20BJJ	.	.	.
4en\	4b\	.	.
4e-X\	12f\L	6aa-/]	.
.	12bJ	.	.
.	12rc	12gg/	.
=49	=49	=49	=49
20rD	12rc	[2aa-X/	.
20CC#X/LL	.	.	.
.	12b\L	.	.
20GG	.	.	.
20F	.	.	.
.	12fJ	.	.
20BJJ	.	.	.
4en\	4b\	.	.
4e-X\	12f\L	6aa-/]	.
.	12bJ	.	.
.	12rc	12gg/	.
=50	=50	=50	=50
20rD	12rc	[2aan/	.
20CC#X/LL	.	.	.
.	12b\L	.	.
20GG	.	.	.
20F	.	.	.
.	12fJ	.	.
20BJJ	.	.	.
4en\	4b\	.	.
4e-X\	12f\L	6aa/]	.
.	12bJ	.	.
.	12rc	12gg#X/	.
*	*v	*v	*
=51	=51	=51
2.r	2.r	.
=52	=52	=52
*^	*	*
*	*^	*	*
[8qCC#\	16qqCC#X/LL	.	.	.
.	[16qqGGJJ	.	.	.
2.CC#\_	2.GG\_	2A/	[2.f [2.b [2.ff [2.bb\	.
.	.	4G#X/	.	.
=53	=53	=53	=53	=53
2.CC#\]	2.GG\]	2F/	2.f] 2.b] 2.ff] 2.bb\]	.
.	.	4E/	.	.
*	*v	*v	*	*
=54	=54	=54	=54
2.CC#X 2.GG\	2D/	2.A-X 2.B 2.e 2.a-X/	.
.	4C#X/	.	.
*v	*v	*	*
=55	=55	=55
4GG 4F/	4An 4B 4f 4an/	.
8r	8r	.
16qqGG/LL	.	.
16qqF	.	.
16qqBJJ	.	.
24a\LL	8bb\	.
24f	.	.
24BJJ	.	.
16F/LL	8ff\L	.
16GGJJ	.	.
8r	8eeJ	.
=56	=56	=56
4r	2a/	.
8r	.	.
24f\LL	.	.
24B	.	.
24FJJ	.	.
16GGn/LL	4g#X/	.
16GGGJJ	.	.
8r	.	.
=57	=57	=57
8r	4r	.
24GGG/LL	.	.
24CC#X	.	.
24FJJ	.	.
4.A\	[2B [2f [2b/	.
8G#X\	.	.
=58	=58	=58
8r	2B] 2f] 2b/]	.
24GGGn/LL	.	.
24CC#X	.	.
24FJJ	.	.
4.A\	.	.
.	4r	.
8G#X\	.	.
=59	=59	=59
2.r	2.r	.
=60	=60	=60
*^	*	*
*	*^	*	*
[8qGGn\	16qqGG/LL	.	.	.
.	[16qqC#XJJ	.	.	.
2.GG\_	2.C#\]	2A/	[2.B 2.f [2.b/	.
.	.	4G#X/	.	.
*	*v	*v	*	*
=61	=61	=61	=61
2.GG\]	2F/	2.B] 2.c#X 2.b/]	.
.	4E/	.	.
=62	=62	=62	=62
2.GG\	2D/	2.A-X 2.B 2.e 2.a-X/	.
.	4C#X/	.	.
=63	=63	=63	=63
2.GG\	2F/	12An 12B 12f 12an/	.
.	.	24a\LL	.
.	.	24b	.
.	.	24cc#X	.
.	.	24eeJJ	.
.	.	12ff\L	.
.	.	12aa	.
.	.	12bbJ	.
.	4E/	12ccc#X\L	.
.	.	12eee	.
.	.	24qqaa/LL	.
.	.	24qqbb	.
.	.	24qqccc#	.
.	.	24qqeeeJJ	.
.	.	12fffJ	.
=64	=64	=64	=64
2.GG\	2D/	2.A-X 2.B 2.e 2.a-X/	.
.	4C#X/	.	.
=65	=65	=65	=65
2.GG\	2F/	12An 12B 12f 12an/	.
.	.	24a\LL	.
.	.	24b	.
.	.	24cc#X	.
.	.	24eeJJ	.
.	.	12ff\L	.
.	.	12aa	.
.	.	12bbJ	.
.	4C#X/	12ccc#X\L	.
.	.	12eee	.
.	.	24qqaa/LL	.
.	.	24qqbb	.
.	.	24qqccc#	.
.	.	24qqeeeJJ	.
.	.	12fffJ	.
=66	=66	=66	=66
2.FF\	2Cn/	2.G-X 2.A 2.d 2.g-X/	.
.	4BB/	.	.
=67	=67	=67	=67
2.FF\	2E-X/	12Gn 12A 12e-X 12gn/	.
.	.	24g\LL	.
.	.	24a	.
.	.	24b	.
.	.	24ddJJ	.
.	.	12ee-X\L	.
.	.	12gg	.
.	.	12aaJ	.
.	4D/	12bb\L	.
.	.	12ddd	.
.	.	24qqgg/LL	.
.	.	24qqaa	.
.	.	24qqbb	.
.	.	24qqdddJJ	.
.	.	12eee-XJ	.
=68	=68	=68	=68
[2.FF\	2C/	[2.G-X [2.A [2.d [2.g-X/	.
.	4BB/	.	.
=69	=69	=69	=69
2.FF\]	2C/	2.G-] 2.A] 2.d] 2.g-/]	.
.	4BB/	.	.
=70	=70	=70	=70
*	*	*^	*
.	.	8qA\	.	.
2.FF 2.BB\	16%3Gn/	2.e-X\	8%3.a/	.
.	16%3G-X/	.	.	.
.	16%3Gn/	.	.	.
.	16%3A-X/	.	16%3a-X/	.
*v	*v	*	*	*
*	*v	*v	*
=71	=71	=71
4BB 4An\	4c#X 4d#X 4an 4cc#X/	.
8r	8r	.
.	8qa/	.
16qqBB/LL	.	.
16qqA	.	.
16qqd#XJJ	.	.
*clefG2	*	*
24cc#X/LL	8ddd#X\	.
24a	.	.
24g#XJJ	.	.
24e#X/LL	8aa\L	.
24d#X	.	.
24g#	.	.
24e#	8gg#XJ	.
24d#	.	.
24c#XJJ	.	.
=72	=72	=72
12A/L	2cc#X\	.
24c#XL	.	.
24d#X	.	.
24e#X	.	.
24g#XJJ	.	.
2a/	.	.
.	4b#X\	.
*clefF4	*	*
=73	=73	=73
*	*^	*
16r	4rc	4raa	.
16AA-X\LL	.	.	.
16G-X	.	.	.
16cnJJ	.	.	.
4B-X 4b-X\	4rc	4g-X 4ccn 4ee-X\	.
20G-\LL	20rc	10raa	.
20cJJ	20f\LL	.	.
10r	20b--	10.b--/	.
.	20g-	.	.
20r	20cJJ	.	.
=74	=74	=74	=74
20c\LL	20rc	10raa	.
20G-X	20f\LL	.	.
20AA-XJJ	20b-	10.b-X/	.
10r	20g-X	.	.
.	20cJJ	.	.
4r	4rc	10raa	.
.	.	10qg-/	.
.	.	10.cc/	.
20G-\LL	20rc	10raa	.
20c	20f\LL	.	.
20b-XJJ	20dd	10.dd/	.
10r	20g-	.	.
.	20cJJ	.	.
=75	=75	=75	=75
20c-X\LL	20rc	10raa	.
20D-X	20f\LL	.	.
20AA-XJJ	20ff	10.ff/	.
10r	20g-X	.	.
.	20e-XJJ	.	.
24c-/LL	8rc	8raa	.
24f	.	.	.
*clefG2	*	*	*
24ee-XJJ	.	.	.
*clefF4	*	*	*
16qqAA-/LL	.	.	.
16qqD-	.	.	.
16qqc-	.	.	.
16qqfJJ	.	8qcc-X/	.
*clefG2	*	*	*
24ee-\LL	8rc	8fff\	.
24cc-X	.	.	.
24b-XJJ	.	.	.
24bn/LL	4rc	8ccc-X\L	.
24f	.	.	.
24b	.	.	.
24g	.	8bb-XJ	.
24f	.	.	.
24e-XJJ	.	.	.
*	*v	*v	*
=76	=76	=76
12c-X/L	2ee-X\	.
24e-XL	.	.
24f	.	.
24g	.	.
24b-XJJ	.	.
2cc-X\	.	.
.	4ddn\	.
*clefF4	*	*
=77	=77	=77
*^	*	*
*	*^	*	*
*	*	*^	*	*
8rD	8r	8r	8r	20%3r	.
.	[8.qGG\	.	16qqGG/L	.	.
.	.	[8qF\	16qqF	.	.
.	.	.	[16qqBnJ	.	.
8A 8a/	8GG\]	8F\]	8B\]	.	.
.	.	.	.	20%3f 20%3bn 20%3ff\	.
8BBB/	2r	2r	2r	.	.
.	.	.	.	20%3gg#X 20%3ggg#X\	.
8EEn/	.	.	.	.	.
.	.	.	.	20%3dd 20%3ddd\	.
8D\	.	.	.	.	.
.	.	.	.	20%3cc#X 20%3ccc#X\	.
8G#X\	.	.	.	.	.
*v	*v	*	*	*	*
*v	*v	*	*	*
*v	*v	*	*
=78	=78	=78
4c#X\	2f#X 2ff#X\	.
4B\	.	.
4r	4e#X 4ee#X/	.
=79	=79	=79
*^	*^	*
*	*^	*	*	*
6r	24rEE	4rc	12rc	[2gg#X/	.
.	24BBB\LL	.	.	.	.
.	24EEn	.	12dd\L	.	.
.	24D	.	.	.	.
[12G#/	24G#X	.	12g#XJ	.	.
.	[24dJJ	.	.	.	.
2G#\]	2d\]	[4F#X [4f#X/	4dd\	.	.
.	.	6F#] 6f#/]	12g#\L	6gg#/]	.
.	.	.	12ddJ	.	.
.	.	12Gn 12gn/	12rc	12ggn/	.
*	*v	*v	*	*	*
=80	=80	=80	=80	=80
20rEE	2G 2g/	12rc	[2ccc-X/	.
20d\LL	.	.	.	.
.	.	12dd\L	.	.
20A-X	.	.	.	.
20D	.	.	.	.
.	.	12a-XJ	.	.
20EEJJ	.	.	.	.
8BBB-X\	.	4dd\	.	.
8rEE	.	.	.	.
4rEE	4G-X 4g-X/	12a-\L	12ccc-/L]	.
.	.	12ddJ	12bb-X	.
.	.	12rc	12aanJ	.
=81	=81	=81	=81	=81
*	*^	*	*	*
6r	24rEE	4rc	12rc	[2gg#X/	.
.	24BBBn\LL	.	.	.	.
.	24EE	.	12dd\L	.	.
.	24D	.	.	.	.
[12G#/	24G#X	.	12g#XJ	.	.
.	[24dJJ	.	.	.	.
2G#\]	2d\]	[4F#X [4f#X/	4dd\	.	.
.	.	6F#] 6f#/]	12g#\L	6gg#/]	.
.	.	.	12ddJ	.	.
.	.	12Gn 12gn/	12rc	12ggn/	.
*	*v	*v	*	*	*
=82	=82	=82	=82	=82
20rEE	2G 2g/	12rc	[2ccc-X/	.
20d\LL	.	.	.	.
.	.	12dd\L	.	.
20A-X	.	.	.	.
20D	.	.	.	.
.	.	12a-XJ	.	.
20EEJJ	.	.	.	.
8BBB-X\	.	4dd\	.	.
8rEE	.	.	.	.
4rEE	6G-X 6g-X/	12a-\L	6ccc-/]	.
.	.	12ddJ	.	.
.	12Gn 12gn/	12rc	12bb-X/	.
=83	=83	=83	=83	=83
*	*^	*	*	*
6r	24rEE	4rc	12rc	[2aa#X/	.
.	24CC#X\LL	.	.	.	.
.	24FF#X	.	12ee\L	.	.
.	24E	.	.	.	.
[12A#/	24A#X	.	12a#XJ	.	.
.	[24eJJ	.	.	.	.
2A#\]	2e\]	[4G#X [4g#X/	4ee\	.	.
.	.	6G#] 6g#/]	12a#\L	6aa#/]	.
.	.	.	12eeJ	.	.
.	.	12An 12an/	12rc	12aan/	.
*	*v	*v	*	*	*
=84	=84	=84	=84	=84
20rEE	2A 2a/	12rc	[2ddd-X/	.
20e\LL	.	.	.	.
.	.	12ee\L	.	.
20B-X	.	.	.	.
20E	.	.	.	.
.	.	12b-XJ	.	.
20FF#XJJ	.	.	.	.
8CCn\	.	4ee\	.	.
8rEE	.	.	.	.
4rEE	4A-X 4a-X/	12b-\L	12ddd-/L]	.
.	.	12eeJ	12ccc	.
.	.	12rc	12bbnJ	.
=85	=85	=85	=85	=85
*	*^	*	*	*
6r	24rEE	4rc	12rc	[2aa#X/	.
.	24CC#X\LL	.	.	.	.
.	24FF#X	.	12ee\L	.	.
.	24E	.	.	.	.
[12A#/	24A#X	.	12a#XJ	.	.
.	[24eJJ	.	.	.	.
2A#\]	2e\]	[4G#X [4g#X/	4ee\	.	.
.	.	6G#] 6g#/]	12a#\L	6aa#/]	.
.	.	.	12eeJ	.	.
.	.	12An 12an/	12rc	12aan/	.
*	*v	*v	*	*	*
=86	=86	=86	=86	=86
20rEE	2A 2a/	12rc	[2ddd-X/	.
20e\LL	.	.	.	.
.	.	12ee\L	.	.
20B-X	.	.	.	.
20E	.	.	.	.
.	.	12b-XJ	.	.
20FF#XJJ	.	.	.	.
8CCn\	.	4ee\	.	.
8rEE	.	.	.	.
4rEE	6A-X 6a-X/	12b-\L	6ddd-/]	.
.	.	12eeJ	.	.
.	12An 12an/	12rc	12ccc/	.
=87	=87	=87	=87	=87
*	*^	*	*	*
6r	24rEE	4rc	12rc	[2bb#X/	.
.	24DD#X\LL	.	.	.	.
.	24GG#X	.	12ff#X\L	.	.
.	24F#X	.	.	.	.
[12B#/	24B#X	.	12b#XJ	.	.
.	[24f#XJJ	.	.	.	.
2B#\]	2f#\]	[4A#X [4a#X/	4ff#\	.	.
.	.	6A#] 6a#/]	12b#\L	6bb#/]	.
.	.	.	12ff#J	.	.
.	.	[12Bn [12bn/	12rc	12bbn/	.
*	*v	*v	*	*	*
=88	=88	=88	=88	=88
20rEE	2B] 2b/]	12rc	[2eee-X/	.
20f#X\LL	.	.	.	.
.	.	12ff#X\L	.	.
20c	.	.	.	.
20F#X	.	.	.	.
.	.	12ccJ	.	.
20GG#XJJ	.	.	.	.
8DDn\	.	4ff#\	.	.
8rEE	.	.	.	.
4rEE	4B-X 4b-X/	12cc\L	6eee-/]	.
.	.	12ff#J	.	.
.	.	12rc	12ddd/	.
=89	=89	=89	=89	=89
20rEE	2Bn 2bn/	12rc	[2eee-X/	.
20f#X\LL	.	.	.	.
.	.	12ff#X\L	.	.
20c	.	.	.	.
20F#X	.	.	.	.
.	.	12ccJ	.	.
20GG#XJJ	.	.	.	.
8DD\	.	4ff#\	.	.
8rEE	.	.	.	.
4rEE	4B-X 4b-X/	12cc\L	6eee-/]	.
.	.	12ff#J	.	.
.	.	12rc	12ddd/	.
=90	=90	=90	=90	=90
4c 4f#X\	8BnL 8bn/	4ff#X\	6ee-X 6eee-X/	.
.	8B-XJ 8b-X	.	.	.
.	.	.	12dd 12ddd/	.
4c 4f#\	8BnL 8bn/	4ff#\	6ee- 6eee-/	.
.	8B-XJ 8b-X	.	.	.
.	.	.	12dd 12ddd/	.
4c 4f#\	8BnL 8bn/	4ff#\	6ee- 6eee-/	.
.	8B-XJ 8b-X	.	.	.
.	.	.	12dd 12ddd/	.
*v	*v	*	*	*
=91	=91	=91	=91
4r	4rc	4raa	.
4r	4rc	4raa	.
20c\LL	20rc	10raa	.
20f#XJJ	20bn\LL	.	.
10r	20ee-	10.ee-X/	.
.	20cc	.	.
20r	20f#XJJ	.	.
=92	=92	=92	=92
20c\LL	20rc	10raa	.
20D	20b\LL	.	.
20AAJJ	20ee	10.een/	.
10r	20cc	.	.
.	20f#XJJ	.	.
4r	4rc	10raa	.
.	.	10qcc/	.
.	.	10.ff#X/	.
24c\LL	20rc	10raa	.
24f#X	.	.	.
.	20b\LL	.	.
*clefG2	*	*	*
24eeJJ	.	.	.
.	20gg#	10.gg#X/	.
8r	.	.	.
.	20cc	.	.
.	20f#JJ	.	.
*clefF4	*	*	*
=93	=93	=93	=93
*^	*	*	*
4rEE	20c\LL	20rc	10raa	.
.	20Fn	20b\LL	.	.
.	20AAJ	20bb	10.bb/	.
.	10e-XJ	20cc	.	.
.	.	20a-XJJ	.	.
20c\LL	8c/	4rc	4raa	.
20a-X	.	.	.	.
20f	.	.	.	.
.	8rc	.	.	.
20e-	.	.	.	.
20cJJ	.	.	.	.
20a-\LL	8a-/	32b\LLL	8b/	.
.	.	32cc	.	.
20f	.	.	.	.
.	.	32b	.	.
.	.	32ccJ	.	.
20e-	.	.	.	.
.	8rc	16bJJ	8raa	.
20c	.	.	.	.
.	.	16rc	.	.
20a-JJ	.	.	.	.
=94	=94	=94	=94	=94
20f\LL	8f/	32cc\LLL	8cc/	.
.	.	32dd	.	.
20e-X	.	.	.	.
.	.	32cc	.	.
.	.	32ddJ	.	.
20c	.	.	.	.
.	8rc	16ccJJ	8raa	.
20a-X	.	.	.	.
.	.	16rc	.	.
20fJJ	.	.	.	.
20e-\LL	8e-/	32dd\LLL	8dd/	.
.	.	32ee-X	.	.
20c	.	.	.	.
.	.	32dd	.	.
.	.	32ee-J	.	.
20a-	.	.	.	.
.	8rc	16ddJJ	8raa	.
20f	.	.	.	.
.	.	16rc	.	.
20e-JJ	.	.	.	.
20c\LL	8c/	32ee-\LLL	8ee-/	.
.	.	32ff	.	.
20a-	.	.	.	.
.	.	32ee-	.	.
.	.	32ffJ	.	.
20f	.	.	.	.
.	8rc	16ee-JJ	8raa	.
20e-	.	.	.	.
.	.	16rc	.	.
20cJJ	.	.	.	.
*	*	*v	*v	*
=95	=95	=95	=95
20a\LL	8an/	2een\	.
20f#X	.	.	.
20en	.	.	.
.	8rc	.	.
20c	.	.	.
20DJJ	.	.	.
4rEE	8AA/	.	.
.	8rc	.	.
4rEE	24b\LL	4ee-X/	.
.	24cc	.	.
.	24f#	.	.
.	24c	.	.
.	24D	.	.
.	24AAJJ	.	.
*v	*v	*	*
=96	=96	=96
24b\LL	4een/	.
24cc	.	.
24f#X	.	.
24c	.	.
24D	.	.
24AAJJ	.	.
.	8qcc/	.
4r	4ff#X/	.
24b\LL	4gg#X/	.
24cc	.	.
24f#	.	.
24c	.	.
24f#	.	.
*clefG2	*	*
24eeJJ	.	.
*clefF4	*	*
=97	=97	=97
*^	*^	*
4rEE	24b\LL	4rc	2bb/	.
.	24b#X	.	.	.
.	24f#X	.	.	.
.	24B#X	.	.	.
.	24F#X	.	.	.
.	24GG#XJJ	.	.	.
*clefG2	*	*	*	*
4d#\	20d#X/LL	12dd#X\L	.	.
.	20bn	.	.	.
.	.	12dd#	.	.
.	20a	.	.	.
.	20f#X	.	.	.
.	.	12bJ 12dd#	.	.
.	20d#JJ	.	.	.
4b\	20b/LL	12dd#\L	4aa/	.
.	20a	.	.	.
.	.	12b 12dd#	.	.
.	20f#	.	.	.
.	20d#	.	.	.
.	.	12dd#J	.	.
.	20bJJ	.	.	.
=98	=98	=98	=98	=98
4a\	20a/LL	12dd#X\L	4bb/	.
.	20f#X	.	.	.
.	.	12dd#	.	.
.	20d#X	.	.	.
.	20b	.	.	.
.	.	12dd#J	.	.
.	20aJJ	.	.	.
4f#\	20f#/LL	12ccL 12ff#X\	4ccc/	.
.	20d#	.	.	.
.	.	12cc 12ff#	.	.
.	20b	.	.	.
.	20a	.	.	.
.	.	12ccJ 12ff#	.	.
.	20f#JJ	.	.	.
4d#\	24d#/LL	12dd#L 12ff#\	4ddd#X/	.
.	24b	.	.	.
.	24a	12dd# 12ff#	.	.
.	16f#	.	.	.
.	.	12dd#J 12ff#	.	.
.	16d#JJ	.	.	.
*v	*v	*	*	*
=99	=99	=99	=99
[8qDD-X [8qGG [8qE-- [8qA-X/	.	.	.
10DD-] 10GG] 10E--] 10A-] 10e-- 10fn 10a-X 10b-X 10ee--/	12ffnL 12bb-X 12eee--\	2.fffn/	.
.	12ff 12bb- 12eee--	.	.
20ee--\LL	.	.	.
20b-	.	.	.
.	12ffJ 12bb- 12eee--	.	.
20a-JJ	.	.	.
20f/LL	12ffL 12bb- 12eee--\	.	.
20e--	.	.	.
.	12ff 12bb- 12eee--	.	.
20ee--	.	.	.
20b-	.	.	.
.	12ffJ 12bb- 12eee--	.	.
20a-JJ	.	.	.
20f/LL	12ffL 12bb- 12eee--\	.	.
20e--	.	.	.
.	12ff 12bb- 12eee--	.	.
20ee--	.	.	.
20b-	.	.	.
.	12ffJ 12bb- 12eee--	.	.
20a-JJ	.	.	.
*	*v	*v	*
=100	=100	=100
2.r	2.r	.
=101	=101	=101
[8qDD-X [8qGG [8qE-- [8qA-X/	.	.
*	*^	*
10DD-] 10GG] 10E--] 10A-] 10e-- 10f 10a-X 10b-X 10ee--/	12ffL 12bb-X 12eee--\	2.fff/	.
.	12ff 12bb- 12eee--	.	.
20ee--\LL	.	.	.
20b-	.	.	.
.	12ffJ 12bb- 12eee--	.	.
20a-JJ	.	.	.
20f/LL	12ffL 12bb- 12eee--\	.	.
20e--	.	.	.
.	12ff 12bb- 12eee--	.	.
20ee--	.	.	.
20b-	.	.	.
.	12ffJ 12bb- 12eee--	.	.
20a-JJ	.	.	.
20f/LL	12ffL 12bb- 12eee--\	.	.
20e--	.	.	.
.	12ff 12bb- 12eee--	.	.
20ee--	.	.	.
20b-	.	.	.
.	12ffJ 12bb- 12eee--	.	.
20a-JJ	.	.	.
*	*v	*v	*
=102	=102	=102
2.r	2.r	.
*clefF4	*	*
=103	=103	=103
8DD-X/L	12E--/L	.
.	12d-X	.
8GG	.	.
.	12B-XJ	.
8F	12e--/L	.
.	12B-	.
8GG	.	.
.	12e--J	.
8F	12d-/L	.
.	12b-X	.
8B-XJ	.	.
.	12d-J	.
=104	=104	=104
8F\L	12b-X/L	.
.	12e--	.
8B-XJ	.	.
.	12dd-XJ	.
8f\	12e--/L	.
.	12dd-	.
8r	.	.
.	12b-J	.
4r	12e--/L	.
.	12B-X	.
.	12d-XJ	.
=105	=105	=105
8DD-X/L	12E--/L	.
.	12d-X	.
8GG	.	.
.	12B-XJ	.
8F	12e--/L	.
.	12B-	.
8GG	.	.
.	12e--J	.
8F	12d-/L	.
.	12b-X	.
8B-XJ	.	.
.	12d-J	.
=106	=106	=106
8F\L	12b-X/L	.
.	12e--	.
8B-X	.	.
.	12dd-XJ	.
8f	12e--/L	.
.	12dd-	.
8B-	.	.
.	12b-J	.
8F	12ee--\L	.
.	12b-	.
8B-J	.	.
.	12ee--J	.
=107	=107	=107
8f\L	12dd-X/L	.
.	12b-X	.
8B-X	.	.
.	12e--J	.
8F	12dd-\L	.
.	12b-	.
8B-	.	.
.	12ee--J	.
8f	12b-\L	.
.	12ee--	.
8B-J	.	.
.	12dd-J	.
=108	=108	=108
8F\L	12b-X/L	.
.	12e--	.
8B-X	.	.
.	12dd-XJ	.
8f	12b-\L	.
.	12ee--	.
8B-J	.	.
.	12b-J	.
8F\	12ee--\L	.
.	12dd-	.
8r	.	.
.	12b-J	.
=109	=109	=109
*M9/8	*M9/8	*
16r	[4.b-X\	.
16f\LL	.	.
16c-X	.	.
16D-XJ	.	.
[8GJ	.	.
2.G\]	8b-\L]	.
.	8cc-X	.
.	8ffJ	.
.	[4.e--/	.
=110	=110	=110
4r	4.e--/_	.
8r	.	.
16f\LL	8.e--/L]	.
16c-X	.	.
16D-XJJ	.	.
16r	16e-XL	.
8r	16b-X	.
.	16cc-XJJ	.
16c-\LL	4ff\	.
16F	.	.
16GGJJ	.	.
16r	.	.
8r	[8e--/	.
=111	=111	=111
16f\LL	8.e--/L]	.
16c-X	.	.
16D-XJJ	.	.
16r	16e-XL	.
8r	16b-X	.
.	16cc-XJJ	.
16c-\LL	4ff\	.
16F	.	.
16GGJJ	.	.
16r	.	.
8r	[8e--/	.
16F/LL	8e--/L]	.
16GG	.	.
16DD-XJJ	8cc-	.
16r	.	.
8r	8b-J	.
=112	=112	=112
[8qAAA [8qDD#X/	.	.
*	*^	*
4.AAA] 4.DD#] 4.BB-X 4.En/	4rc	4.B-X 4.f#X 4.b-X [4.cc#X/	.
.	8rc	.	.
2.c#X\	8B-\L	8cc#/]	.
.	8a	4a/	.
.	8f#J	.	.
.	8b-\L	4b-/	.
.	8f#	.	.
.	8cc#J	8cc#/	.
*	*v	*v	*
=113	=113	=113
16r	[4.ccn\	.
16g\LL	.	.
16d-X	.	.
16E-XJ	.	.
[8AJ	.	.
2.A\]	8cc\L]	.
.	8dd-X	.
.	8ggJ	.
.	[4.f-X/	.
=114	=114	=114
4r	4.f-/_	.
8r	.	.
16g\LL	8.f-/L]	.
16d-X	.	.
16E-XJJ	.	.
16r	16fnL	.
8r	16cc	.
.	16dd-XJJ	.
16d-\LL	4gg\	.
16G	.	.
16AAJJ	.	.
16r	.	.
8r	[8f-X/	.
=115	=115	=115
16g\LL	8.f-/L]	.
16d-X	.	.
16E-XJJ	.	.
16r	16fnL	.
8r	16cc	.
.	16dd-XJJ	.
16d-\LL	4gg\	.
16G	.	.
16AAJJ	.	.
16r	.	.
8r	[8f-X/	.
16G/LL	8f-/L]	.
16AA	.	.
16EE-XJJ	8dd-	.
16r	.	.
8r	8ccJ	.
=116	=116	=116
[8qBBB [8qEE#X/	.	.
4BBB] 4EE#] 4C 4F#X/	8.cL 8.g#X 8.cc 8.dd#X/	.
.	16gnL	.
8r	16ddn	.
.	16ee-XJJ	.
16e-X\LL	4aa\	.
16A	.	.
16BBJJ	.	.
16r	.	.
8r	[8g-X/	.
16A/LL	8g-\L]	.
16BB	.	.
16FFnJJ	8ee-	.
16r	.	.
8r	8ddJ	.
=117	=117	=117
*M3/4	*M3/4	*
[8qBBB [8qEE#X/	.	.
*	*^	*
4BBB] 4EE#] 4C 4F#X/	4rc	4c 4g#X 4cc 4dd#X/	.
2D#X 2d#X\	12c\L	12raa	.
.	12b	6b/	.
.	12g#J	.	.
.	12cc\L	6cc/	.
.	12g#	.	.
.	12ddJ	12ddn/	.
=118	=118	=118	=118
[8qBBB [8qEE#X/	.	.	.
4BBB] 4EE#] 4C 4F#X/	4rc	4c 4g#X 4cc 4dd#X/	.
2D#X 2d#X\	12c\L	12raa	.
.	12b	6b/	.
.	12g#J	.	.
.	12cc\L	6cc/	.
.	12g#	.	.
.	12eeJ	12een/	.
=119	=119	=119	=119
[8qAAA-X [8qDDn/	.	.	.
4AAA-] 4DD] 4BB-- 4E-X/	4rc	4f 4b-- 4cc 4ff\	.
2C 2c\	12f\L	12raa	.
.	12cc-	6cc-X/	.
.	12a-XJ	.	.
.	12cc\L	6ccn/	.
.	12b--	.	.
.	12eeJ	12een/	.
=120	=120	=120	=120
[8qAAA-X [8qDD/	.	.	.
4AAA-] 4DD] 4BB-- 4E-X/	4rc	4f 4b-- 4cc 4ff\	.
2C 2c\	12f\L	12raa	.
.	12cc-	6cc-X/	.
.	12a-XJ	.	.
.	12cc\L	6ccn/	.
.	12b--	.	.
.	12eeJ	12een/	.
*	*v	*v	*
=121	=121	=121
[8qGGG [8qCC#X/	.	.
4GGG] 4CC#] 4AA-X 4D/	4a-X 4bn 4ee 4aa-X\	.
[2BBn [2Bn\	12A-X/L	.
.	12g	.
.	12eJ	.
.	12a-/L	.
.	12e	.
.	12a-J	.
=122	=122	=122
2BB] 2B\]	12g\L	.
.	12ee	.
.	12gJ	.
.	12ee\L	.
.	12a-X	.
.	12ggJ	.
4r	12a-\L	.
.	12gg	.
.	12eeJ	.
=123	=123	=123
[8qGGG [8qDD-X [8qGG/	.	.
4GGG] 4DD-] 4GG] 4E-- 4A-X/	4a-X 4b-X 4ee-- 4ff 4aa-X\	.
[2F\	12E--/L	.
.	12d-X	.
.	12B-XJ	.
.	12e--/L	.
.	12B-	.
.	12e--J	.
=124	=124	=124
*	*^	*
*	*	*^	*
2F\]	4r	4rc	12d-X/L	.
.	.	.	12b-X	.
.	.	.	12d-J	.
.	4r	4rc	12b-/L	.
.	.	.	12e--	.
.	.	.	12dd-XJ	.
4GG 4F 4c-X\	12r	4e--\	12e--/L	.
.	6ee--\	.	12dd-	.
.	.	.	12b-J	.
*	*	*v	*v	*
*	*v	*v	*
=125	=125	=125
4D-X 4c-X\	4e-X 4f 4cc-X 4ee-X/	.
8r	8r	.
16qqD-/LL	.	.
16qqc-	.	.
16qqfJJ	.	.
*clefG2	*	*
24ee-X\LL	8fff\	.
24cc-X	.	.
24fJJ	.	.
*clefF4	*	*
16c-\LL	8ccc-X\L	.
16D-JJ	.	.
8r	8bb-XJ	.
*clefG2	*	*
=126	=126	=126
4r	2ee-X\	.
8r	.	.
24cc-X\LL	.	.
24f	.	.
24c-XJJ	.	.
*clefF4	*	*
16D-X/LL	4ddn\	.
16DD-XJJ	.	.
8r	.	.
=127	=127	=127
8r	4r	.
24GG\LL	.	.
24D-X	.	.
24c-XJJ	.	.
4.e-X\	[2f [2cc-X [2ff\	.
8dn\	.	.
=128	=128	=128
8r	2f] 2cc-] 2ff\]	.
24GG\LL	.	.
24D-X	.	.
24c-XJJ	.	.
4.e-X\	.	.
.	4r	.
8dn\	.	.
=129	=129	=129
*	*^	*
4r	4rc	4raa	.
4r	4rc	4raa	.
20c-X\LL	20rc	10raa	.
20fJJ	20b-X\LL	.	.
10r	20ee--	10.ee--/	.
.	20cc-X	.	.
20r	20fJJ	.	.
=130	=130	=130	=130
20f\LL	20rc	10raa	.
20c-X	20b-X\LL	.	.
20D-XJJ	20ee-	10.ee-X/	.
10r	20cc-X	.	.
.	20fJJ	.	.
4r	4rc	10raa	.
.	.	10qcc-/	.
.	.	10.ff/	.
20c-\LL	20rc	10raa	.
20f	20b-\LL	.	.
*clefG2	*	*	*
20ee-XJJ	20gg	10.gg/	.
10r	20cc-	.	.
.	20fJJ	.	.
=131	=131	=131	=131
20a--\LL	20rc	10raa	.
20e--	20b-X\LL	.	.
*clefF4	*	*	*
20F-XJJ	20bb-	10.bb-X/	.
10r	20cc-X	.	.
.	20a--JJ	.	.
*clefG2	*	*	*
20e--\LL	4rc	4raa	.
20a--	.	.	.
20ee--JJ	.	.	.
10r	.	.	.
4r	4rc	4b-\	.
*	*v	*v	*
=132	=132	=132
20a--\LL	4cc-X\	.
20e--	.	.
*clefF4	*	*
20F-XJJ	.	.
10r	.	.
4r	4dd-X\	.
16qqBB-X/LL	.	.
16qqA-XJJ	.	.
4cn\	4dn 4a-X 4ddn/	.
=133	=133	=133
16c-X\LL	4e-X 4f 4cc-X 4ee-/	.
16D-XJJ	.	.
8r	.	.
8r	8r	.
16qqD-/LL	.	.
16qqc-	.	.
16qqfJJ	.	.
*clefG2	*	*
24ee-X\LL	8fff\	.
24cc-X	.	.
24fJJ	.	.
*clefF4	*	*
16c-\LL	8ccc-X\L	.
16D-JJ	.	.
8r	8bb-XJ	.
*clefG2	*	*
=134	=134	=134
4r	2ee-X\	.
8r	.	.
24cc-X\LL	.	.
24f	.	.
24c-XJJ	.	.
*clefF4	*	*
16D-X/LL	4ddn\	.
16DD-XJJ	.	.
8r	.	.
=135	=135	=135
*	*^	*
8rD	4rc	4raa	.
24GG\LL	.	.	.
24D-X	.	.	.
24c-XJJ	.	.	.
4.e-X\	[2f [2cc-X\	[2ff/	.
8dn\	.	.	.
=136	=136	=136	=136
8r	2.f] 2.cc-\]	2ff/]	.
24GG\LL	.	.	.
24D-X	.	.	.
24c-XJJ	.	.	.
4e-X\	.	.	.
4f-X\	.	4ff-X/	.
=137	=137	=137	=137
8r	4rc	4raa	.
24GG\LL	.	.	.
24C#X	.	.	.
24BJJ	.	.	.
4.en\	[2fn [2b\	[2gg/	.
8d#X\	.	.	.
=138	=138	=138	=138
8r	2.f] 2.b\]	2gg/]	.
24GG\LL	.	.	.
24C#X	.	.	.
24BJJ	.	.	.
4e\	.	.	.
4fn\	.	4ff#X/	.
=139	=139	=139	=139
12r	4rc	4raa	.
12C#X\L	.	.	.
12GJ	.	.	.
4.f\	[2b [2ffn\	[2aa/	.
8e\	.	.	.
=140	=140	=140	=140
12r	2.b] 2.ff\]	2aa/]	.
12C#X\L	.	.	.
12GJ	.	.	.
4f\	.	.	.
4g#X\	.	4gg#X/	.
=141	=141	=141	=141
16r	12rc	[2bb/	.
16C#X\LL	.	.	.
.	12ff\L	.	.
16Gn	.	.	.
.	12bJ	.	.
16fJJ	.	.	.
*clefG2	*	*	*
4.a\	4ff\	.	.
.	12b\L	6bb/]	.
.	12ffJ	.	.
8b-X\	.	.	.
.	12rc	12bb-X/	.
*clefF4	*	*	*
=142	=142	=142	=142
20r	12rc	[2eee--/	.
20GG\LL	.	.	.
.	12ff\L	.	.
20D-X	.	.	.
20c-X	.	.	.
.	12cc-XJ	.	.
20fJJ	.	.	.
*clefG2	*	*	*
4b-X\	4ff\	.	.
4b--\	12cc-\L	12eee--/L]	.
.	12ffJ	12ddd-X	.
.	12rc	12cccnJ	.
*clefF4	*	*	*
=143	=143	=143	=143
16r	12rc	[2bbn/	.
16C#X\LL	.	.	.
.	12ff\L	.	.
16G	.	.	.
.	12bnJ	.	.
16fJJ	.	.	.
*clefG2	*	*	*
4.a\	4ff\	.	.
.	12b\L	6bb/]	.
.	12ffJ	.	.
8b-X\	.	.	.
.	12rc	12bb-X/	.
*clefF4	*	*	*
=144	=144	=144	=144
20rA	12rc	[2eee--/	.
20GG\LL	.	.	.
.	12ff\L	.	.
20D-X	.	.	.
20c-X	.	.	.
.	12cc-XJ	.	.
20fJJ	.	.	.
*clefG2	*	*	*
4b-X\	4ff\	.	.
4b--\	12cc-\L	6eee--/]	.
.	12ffJ	.	.
.	12rc	12ddd-X/	.
*clefF4	*	*	*
=145	=145	=145	=145
20rA	12rc	[2eee--/	.
20GG\LL	.	.	.
.	12ff\L	.	.
20D-X	.	.	.
20c-X	.	.	.
.	12cc-XJ	.	.
20fJJ	.	.	.
*clefG2	*	*	*
4b-X\	4ff\	.	.
4b--\	12cc-\L	6eee--/]	.
.	12ffJ	.	.
.	12rc	12ddd-X/	.
*clefF4	*	*	*
=146	=146	=146	=146
20rA	12rc	[2eee-X/	.
20GG\LL	.	.	.
.	12ff\L	.	.
20D-X	.	.	.
20c-X	.	.	.
.	12cc-XJ	.	.
20fJJ	.	.	.
*clefG2	*	*	*
4b-X\	4ff\	.	.
4b--\	12cc-\L	6eee-/]	.
.	12ffJ	.	.
.	12rc	12dddn/	.
*	*v	*v	*
*clefF4	*	*
=147	=147	=147
2.r	2.r	.
=148	=148	=148
*^	*	*
*	*^	*	*
[8qGG\	16qqGG/LL	.	.	.
.	[16qqD-XJJ	.	.	.
2.GG\_	2.D-\_	2e-X/	[2.f [2.cc-X [2.ff [2.ccc-X [2.fff\	.
.	.	4dn/	.	.
=149	=149	=149	=149	=149
2.GG\]	2.D-\]	2c-X/	2.f] 2.cc-] 2.ff] 2.ccc-] 2.fff\]	.
.	.	4B-X/	.	.
*	*v	*v	*	*
=150	=150	=150	=150
2.GG 2.D-X\	2A-X/	2.e-- 2.f 2.b-X 2.ee--/	.
.	4G/	.	.
*v	*v	*	*
=151	=151	=151
4D-X 4c-X\	4e-X 4f 4cc-X 4ee-X/	.
8r	8r	.
16qqD-/LL	.	.
16qqc-	.	.
16qqfJJ	.	.
*clefG2	*	*
24ee-X\LL	8fff\	.
24cc-X	.	.
24fJJ	.	.
*clefF4	*	*
16c-\LL	8ccc-X\L	.
16D-JJ	.	.
8r	8bb-XJ	.
=152	=152	=152
4r	2ee-X\	.
8r	.	.
*clefG2	*	*
24cc-X\LL	.	.
24f	.	.
24c-XJJ	.	.
*clefF4	*	*
16D-X/LL	4ddn\	.
16DD-XJJ	.	.
8r	.	.
=153	=153	=153
8r	4r	.
24DD-X/LL	.	.
24GG	.	.
24c-XJJ	.	.
4.e-X\	[2f [2cc-X [2ff\	.
8dn\	.	.
=154	=154	=154
8r	2f] 2cc-] 2ff\]	.
24DD-X/LL	.	.
24GG	.	.
24c-XJJ	.	.
4.e-X\	.	.
.	4r	.
8dn\	.	.
=155	=155	=155
2.r	2.r	.
=156	=156	=156
*^	*	*
*	*^	*	*
[8qD-\	16qqD-X/LL	.	.	.
.	[16qqGJJ	.	.	.
2.D-\_	2.G\]	2e-X/	[2.f 2.cc-X [2.ff\	.
.	.	4dn/	.	.
*	*v	*v	*	*
=157	=157	=157	=157
2.D-\]	2c-X/	2.f] 2.g 2.ff\]	.
.	4B-X/	.	.
=158	=158	=158	=158
2.D-X\	2A-X/	2.e-- 2.f 2.b-X 2.ee--/	.
.	4G/	.	.
=159	=159	=159	=159
2.D-X\	2c-X/	12e-X 12f 12cc-X 12ee-X/	.
.	.	24ee-\LL	.
.	.	24ff	.
.	.	24gg	.
.	.	24bb-XJJ	.
.	.	12ccc-X\L	.
.	.	12eee-X	.
.	.	12fffJ	.
.	4B-X/	12ggg\L	.
.	.	12bbb-X	.
.	.	24qqeee-/LL	.
.	.	24qqfff	.
.	.	24qqggg	.
.	.	24qqbbb-JJ	.
.	.	12cccc-XJ	.
=160	=160	=160	=160
[2.D-X\	2A-X/	[2.e-- [2.f [2.b-X [2.ee--/	.
.	4G/	.	.
=161	=161	=161	=161
2.D-\]	2A-X/	2.e--] 2.f] 2.b-] 2.ee--/]	.
.	4G/	.	.
=162	=162	=162	=162
2.D-X\	2A-X/	2.e-- 2.f 2.b-X 2.ee--/	.
.	4G/	.	.
=163	=163	=163	=163
12D-X\	12c-X/	12e-X 12f 12cc-X 12ee-X/	.
12rEE	12rc	24e-/LL	.
.	.	24f	.
12rEE	12rc	24g	.
.	.	24b-XJJ	.
4rEE	4rc	12cc-\L	.
.	.	12ee-	.
.	.	12ffJ	.
4rEE	4rc	12gg\L	.
.	.	12bb-X	.
.	.	24qqee-/LL	.
.	.	24qqff	.
.	.	24qqgg	.
.	.	24qqbb-JJ	.
.	.	12ccc-XJ	.
=164	=164	=164	=164
[2.DD-X\	2AA-X/	[2.F [2.B-X [2.e--/	.
.	4GG/	.	.
=165	=165	=165	=165
2.DD-\]	2AA-X/	2.F] 2.B-] 2.e--/]	.
.	4GG/	.	.
=166	=166	=166	=166
2.DD-X\	2AA-X/	2.F 2.B-X 2.e--/	.
.	4GG/	.	.
*v	*v	*	*
=167	=167	=167
12DD-X 12D-X/	12c-X 12e-X 12f/	.
12r	24e-/LL	.
.	24f	.
12r	24g	.
.	24b-XJJ	.
4r	12cc-X\L	.
.	12ee-X	.
.	12ffJ	.
4r	12gg\L	.
.	12bb-X	.
.	32qqqe-/LLL	.
.	32qqqf	.
.	32qqqg	.
.	32qqqb-	.
.	32qqqcc-	.
.	32qqqee-	.
.	32qqqff	.
.	32qqqgg	.
.	32qqqbb-JJJ	.
.	12ccc-XJ	.
=168	=168	=168
2.r	2.e--/	.
=169	=169	=169
12DD-X 12D-X/	12c-X 12e-X 12f/	.
12r	24e-/LL	.
.	24f	.
12r	24g	.
.	24b-XJJ	.
4r	12cc-X\L	.
.	12ee-X	.
.	12ffJ	.
4r	12gg\L	.
.	12bb-X	.
.	32qqqe-/LLL	.
.	32qqqf	.
.	32qqqg	.
.	32qqqb-	.
.	32qqqcc-	.
.	32qqqee-	.
.	32qqqff	.
.	32qqqgg	.
.	32qqqbb-JJJ	.
.	12ccc-XJ	.
=170	=170	=170
2.r	[2e--/	.
.	8e--\L]	.
.	32qqqe-/LLL	.
.	32qqqf	.
.	32qqqg	.
.	32qqqb-	.
.	32qqqcc-	.
.	32qqqee-	.
.	32qqqff	.
.	32qqqgg	.
.	32qqqbb-JJJ	.
.	8ccc-XJ	.
=171	=171	=171
2.r	[2.e--/	.
=172	=172	=172
2.r	2.e--/]	.
==	==	==
*-	*-	*-
!!!system-decoration: {(*)}
!!!ENC: Bryan Jacob Bell
!!!END: November 2021 to April 2022
!!!PED: Günter Philipp
!!!PTL: Ausgewählte Klavierwerke (Edition Peters)
